public/icons/replay-sm.svg

<svg role="img" width="24" height="24" viewBox="0 0 24 24" fill="none" xmlns="http://www.w3.org/2000/svg">
<path d="M2.4475 12.4262L3.49854 11.3682" stroke="currentColor" stroke-linecap="round" stroke-linejoin="round"/>
<path d="M2.44775 12.4267L1.40339 11.3652" stroke="currentColor" stroke-linecap="round" stroke-linejoin="round"/>
<path d="M2.44759 12.0549C2.44759 6.65988 6.76183 2.28906 12.0871 2.28906C17.4123 2.28906 21.7266 6.65988 21.7266 12.0549C21.7266 17.45 17.4123 21.8208 12.0871 21.8208C8.627 21.8208 5.43052 19.9413 3.7155 16.8956" stroke="currentColor" stroke-linecap="round" stroke-linejoin="round"/>
<path d="M16.2537 12.0057C16.2537 12.0294 9.10204 16.408 9.07683 16.3906C9.05162 16.3733 9.05477 7.64446 9.07683 7.61925C9.09889 7.59404 16.2537 11.9711 16.2537 12.0057Z" stroke="currentColor" stroke-linecap="round" stroke-linejoin="round"/>
</svg>

<svg role="img" xmlns="http://www.w3.org/2000/svg" width="24" height="24" fill="none" viewBox="0 0 24 24">
  <path stroke="currentColor" stroke-linecap="round" stroke-linejoin="round" d="m2.4476 12.4266 1.051-1.058m-1.0508 1.058-1.0444-1.0614m1.0444.6896c0-5.395 4.3142-9.7659 9.6395-9.7659 5.3252 0 9.6394 4.3709 9.6394 9.7659 0 5.3951-4.3142 9.7659-9.6394 9.7659-3.4601 0-6.6566-1.8795-8.3716-4.9252"/>
  <path stroke="currentColor" stroke-linecap="round" stroke-linejoin="round" d="M16.2535 12.0056c0 .0236-7.1516 4.4022-7.1769 4.3849-.0252-.0174-.022-8.7462 0-8.7714.0221-.0252 7.1769 4.3518 7.1769 4.3865Z"/>
</svg>
